X: 30174
T: Old Dudeen, The
R: reel
M: 4/4
K: Bminor
fe|dB{d}BA ~F3 A|dcde fgfe|dB{d}BA ~F3 A|(3Bcd cA B3 c|
dB{d}BA ~F3 A|dcde fgfe|dB{d}BA ~F3 A|(3Bcd cA ~B2 eg||
fdBc ~d3 e|ffbf afeg|fd (3Bcd ABde|fbaf e3 g|
fdBc ~d3 e|ffbf a2 fa|b3 f a2 fa|bfaf egfe||

